dist/img/logo-no-background.svg

<svg xmlns="http://www.w3.org/2000/svg" xmlns:xlink="http://www.w3.org/1999/xlink" xmlns:svgjs="http://svgjs.dev/svgjs" width="1000" height="174"><svg viewBox="0 0 356 62" data-background-color="#ffffff" height="174" width="1000" xmlns="http://www.w3.org/2000/svg" xmlns:xlink="http://www.w3.org/1999/xlink" transform="translate(.17 -.365)"><svg height="61.74" width="356.121" transform="translate(-.06 .13)"><svg height="61.74" width="356.121"><svg height="61.74" width="356.121"><path d="M0 61.74V0h356.121v61.74z" fill="#e83d95" data-fill-palette-color="tertiary"/><path d="M3.283 58.457V3.283h349.554v55.174z" fill="#fff" data-fill-palette-color="quaternary"/><path d="M9.85 51.89V9.85h336.421v42.04z" fill="#e83d95" data-fill-palette-color="tertiary"/><svg height="22.341" width="316.721" transform="translate(19.7 19.7)"><svg height="22.341" width="316.721"><svg width="316.721" viewBox="1.3 -36.85 528.76 37.3" height="22.341" data-palette-color="#ffffff"><path d="M17.05-27.85L11.3-11.6h10.8l-5.05-16.25zM29.15.45q-1.5 0-2.4-.75-.9-.75-1.6-2.65l-1.75-5.1H10l-1.9 4.9Q6.75.45 4.4.45 3.35.45 2.5-.1q-.85-.55-1.2-1.35 1.2-.5 2.1-2.75l11.3-28.75q-.6-1.5-1.5-2.2 1.3-1.4 3-1.4t2.53.92q.82.93 1.62 3.13l9.8 28.05q.85 2.4 2.35 3.2-.95 1.7-3.35 1.7zm9.75-4.2v-28.7q0-1.75-1.4-2.35 1.3-1.75 3.3-1.75 2 0 3.25.85t2.5 2.8L62.7-7.05v-25.4q0-1.75-1.35-2.35 1.2-1.75 3.2-1.75 3.45 0 3.45 4.15v28.7q0 1.8 1.05 2.7-1.1 1.45-3.1 1.45T62.42-.78Q60.9-2 59.15-4.75l-15-23.65v24.7q0 1.85 1.35 2.4Q44.2.45 42.3.45q-3.4 0-3.4-4.2zm51.3-24.1L84.45-11.6h10.8L90.2-27.85zM102.3.45q-1.5 0-2.4-.75-.9-.75-1.6-2.65l-1.75-5.1h-13.4l-1.9 4.9Q79.9.45 77.55.45q-1.05 0-1.9-.55-.85-.55-1.2-1.35 1.2-.5 2.1-2.75l11.3-28.75q-.6-1.5-1.5-2.2 1.3-1.4 3-1.4t2.52.92q.83.93 1.63 3.13l9.8 28.05q.85 2.4 2.35 3.2-.95 1.7-3.35 1.7zm33.39-30q0 1.55-.87 2.45-.88.9-2.18.9-1.3 0-2.7-.7.3-.9.3-1.65 0-1.7-1.8-3.13-1.8-1.42-5.02-1.42-3.23 0-5.18 1.32-1.95 1.33-1.95 3.38t1.53 3.55q1.52 1.5 3.8 2.5 2.27 1 4.92 2.27 2.65 1.28 4.93 2.51 2.27 1.22 3.8 3.17 1.52 1.95 1.52 4.3 0 4.55-3.97 7.55-3.98 3-9.6 3-5.63 0-9.35-2.38-3.73-2.37-3.73-6.02 0-1.75 1.08-2.83 1.07-1.07 2.75-1.07 1.67 0 2.82 1.3-1.15 1-1.15 2.82 0 1.83 2.03 3.18 2.02 1.35 5.52 1.35 3.5 0 5.93-1.7 2.42-1.7 2.42-3.98 0-2.27-2.12-3.92-2.13-1.65-5.13-2.88-3-1.22-6.02-2.62-3.03-1.4-5.15-3.65-2.13-2.25-2.13-5.15 0-4.25 3.75-6.92 3.75-2.68 8.98-2.68 5.22 0 8.6 2.07 3.37 2.08 3.37 5.08zm9.8-6.6h18.85q3.4 0 3.4 2.7 0 1.2-.95 2.15-1.5-.75-4.05-.75h-6.05V-3.7q0 1.8 1.35 2.4-1.2 1.75-3.15 1.75-3.45 0-3.45-4.2v-28.3h-7.6q-3.35 0-3.35-2.7 0-1.2.9-2.1 1.45.7 4.1.7zm40.1 8.3l-5.75 16.25h10.8l-5.05-16.25zm12.1 28.3q-1.5 0-2.4-.75-.9-.75-1.6-2.65l-1.75-5.1h-13.4l-1.9 4.9q-1.35 3.6-3.7 3.6-1.05 0-1.9-.55-.85-.55-1.2-1.35 1.2-.5 2.1-2.75l11.3-28.75q-.6-1.5-1.5-2.2 1.3-1.4 3-1.4t2.52.92q.83.93 1.63 3.13l9.8 28.05q.85 2.4 2.35 3.2-.95 1.7-3.35 1.7zm33.4-30q0 1.55-.88 2.45-.87.9-2.17.9-1.3 0-2.7-.7.3-.9.3-1.65 0-1.7-1.8-3.13-1.8-1.42-5.03-1.42-3.22 0-5.17 1.32-1.95 1.33-1.95 3.38t1.52 3.55q1.53 1.5 3.8 2.5 2.28 1 4.93 2.27 2.65 1.28 4.92 2.51 2.28 1.22 3.8 3.17 1.53 1.95 1.53 4.3 0 4.55-3.98 7.55-3.97 3-9.6 3-5.62 0-9.35-2.38-3.72-2.37-3.72-6.02 0-1.75 1.07-2.83 1.08-1.07 2.75-1.07 1.68 0 2.83 1.3-1.15 1-1.15 2.82 0 1.83 2.02 3.18 2.03 1.35 5.53 1.35 3.5 0 5.92-1.7 2.43-1.7 2.43-3.98 0-2.27-2.13-3.92-2.12-1.65-5.12-2.88-3-1.22-6.03-2.62-3.02-1.4-5.15-3.65-2.12-2.25-2.12-5.15 0-4.25 3.75-6.92 3.75-2.68 8.97-2.68 5.23 0 8.6 2.07 3.38 2.08 3.38 5.08zm14.19-2.85v28.7q0 1.8 1.35 2.4-1.2 1.75-3.2 1.75-3.4 0-3.4-4.2v-28.7q0-1.75-1.35-2.35 1.15-1.75 3.15-1.75 3.45 0 3.45 4.15zm22.2 4.55l-5.75 16.25h10.8l-5.05-16.25zm12.1 28.3q-1.5 0-2.4-.75-.9-.75-1.6-2.65l-1.75-5.1h-13.4l-1.9 4.9q-1.35 3.6-3.7 3.6-1.05 0-1.9-.55-.85-.55-1.2-1.35 1.2-.5 2.1-2.75l11.3-28.75q-.6-1.5-1.5-2.2 1.3-1.4 3-1.4t2.53.92q.82.93 1.62 3.13l9.8 28.05q.85 2.4 2.35 3.2-.95 1.7-3.35 1.7zm32.25-4.7h9.55q3.05 0 4.8-2.05 1.5.75 1.5 2.52 0 1.78-1.4 2.78-1.4 1-4.35 1h-10.6q-4.2 0-6.18-1.73-1.97-1.72-1.97-5.57v-24.5q0-1.8-1.4-2.4 1.4-1.95 4.15-1.95h16.05q5.7 0 5.7 3.05 0 1.7-1.5 2.45-1.6-1.2-4.8-1.2h-12.95V-21h9.5q3.1 0 4.4.55 1.3.55 1.3 2.05 0 1.5-1.35 2.35-1.55-.7-4.8-.7h-9.05v9.05q0 1.85.8 2.65.8.8 2.6.8zm27.19-31.9h16.25q5.5 0 5.5 2.8 0 1.7-1.5 2.45-1.6-1.15-4.8-1.15h-12.95v11.3h9.5q3.1 0 4.4.52 1.3.53 1.3 1.88 0 1.35-1.35 2.2-1.4-.65-4.8-.65h-9.05v13.1q0 1.85 1.35 2.4-1.3 1.75-3.2 1.75-3.4 0-3.4-4.2V-31.8q0-1.8-1.4-2.4 1.4-1.95 4.15-1.95zm33.2 3.75v28.7q0 1.8 1.35 2.4-1.2 1.75-3.2 1.75-3.4 0-3.4-4.2v-28.7q0-1.75-1.35-2.35 1.15-1.75 3.15-1.75 3.45 0 3.45 4.15zm49.5 31.95q-1.35.85-2.85.85t-2.33-.9q-.82-.9-1.02-3l-1.75-26.75-10.6 28.3q-.55 1.6-2.2 1.6-1.65 0-2.2-1.6l-10.45-28.3-1.75 26.6q-.15 2.15-.85 3.12-.7.98-2.3.98-1.6 0-2.9-1.3 1-.85 1.15-3.05l2.1-28.2v-.55q0-1.65-.8-2.6 2.15-1.3 4.5-1.3t3.65 1.3q1.3 1.3 2.2 4.1l8.05 21.75 8.3-21.65q1-3.1 2.52-4.3 1.53-1.2 3.63-1.2 2.1 0 3.9.9-.8 1.1-.8 2.75v.55L420.87-4q.1 2.6.85 3.55zm16.15-6.5q3.1 3.8 7.9 3.8 4.8 0 7.4-4.3 2.2-3.55 2.2-8.85 0-1.1-.1-2.3-.45-6.75-3.55-10.58-3.1-3.82-7.93-3.82-4.82 0-7.42 4.3-2.2 3.6-2.2 8.9 0 8.3 3.7 12.85zm6.95-29.6q7.5 0 11.65 5t4.15 13.42q0 8.43-4.18 13.5Q452.27.45 444.79.45q-7.47 0-11.7-5.05-4.22-5.05-4.22-13.45 0-8.4 4.22-13.45 4.23-5.05 11.73-5.05zm46.34 5.4q.6-1.7.6-2.9t-.6-1.9q1.3-.7 2.75-.7t2.3.8q.85.8.85 2.1t-.55 2.6L485.46-3.5q-.95 2.35-1.77 3.15-.83.8-2.53.8-1.7 0-2.47-.8-.78-.8-1.63-3.15l-10.5-28.35q-.85-2.2-2.1-2.9 1.55-1.8 3.6-1.8 1.35 0 2.25.87.9.88 1.65 2.93l9.65 27.7 9.55-26.1zm23.45 3.3l-5.75 16.25h10.8l-5.05-16.25zm12.1 28.3q-1.5 0-2.4-.75-.9-.75-1.6-2.65l-1.75-5.1h-13.4l-1.9 4.9q-1.35 3.6-3.7 3.6-1.05 0-1.9-.55-.85-.55-1.2-1.35 1.2-.5 2.1-2.75l11.3-28.75q-.6-1.5-1.5-2.2 1.3-1.4 3-1.4t2.53.92q.82.93 1.62 3.13l9.8 28.05q.85 2.4 2.35 3.2-.95 1.7-3.35 1.7z" fill="#fff" class="undefined-text-0" data-fill-palette-color="quaternary"/></svg></svg></svg></svg></svg></svg></svg></svg>

<svg xmlns="http://www.w3.org/2000/svg" version="1.1" xmlns:xlink="http://www.w3.org/1999/xlink" xmlns:svgjs="http://svgjs.dev/svgjs" width="1000" height="174" viewBox="0 0 1000 174"><g transform="matrix(1,0,0,1,0.16994382022460286,-0.36476489702796755)"><svg viewBox="0 0 356 62" data-background-color="#ffffff" preserveAspectRatio="xMidYMid meet" height="174" width="1000" xmlns="http://www.w3.org/2000/svg" xmlns:xlink="http://www.w3.org/1999/xlink"><g id="tight-bounds" transform="matrix(1,0,0,1,-0.06049999999996203,0.12997369894100075)"><svg viewBox="0 0 356.12052 61.740052602118" height="61.740052602118" width="356.12052"><g><svg viewBox="0 0 356.12052 61.740052602118" height="61.740052602118" width="356.12052"><g><svg viewBox="0 0 356.12052 61.740052602118" height="61.740052602118" width="356.12052"><g><path d="M0 61.74v-61.74h356.121v61.74z" fill="#e83d95" stroke="transparent" stroke-width="0" rx="0%" data-fill-palette-color="tertiary"></path><path d="M3.283 58.457v-55.174h349.554v55.174z" fill="#ffffff" stroke="transparent" stroke-width="0" rx="0%" data-fill-palette-color="quaternary"></path><path d="M9.85 51.89v-42.04h336.421v42.04z" fill="#e83d95" stroke="transparent" stroke-width="0" data-fill-palette-color="tertiary"></path></g><g transform="matrix(1,0,0,1,19.69974,19.69974)" id="textblocktransform"><svg viewBox="0 0 316.72104 22.340572602118005" height="22.340572602118005" width="316.72104" id="textblock"><g><svg viewBox="0 0 316.72104 22.340572602118005" height="22.340572602118005" width="316.72104"><g transform="matrix(1,0,0,1,0,0)"><svg width="316.72104" viewBox="1.3 -36.85 528.76 37.300000000000004" height="22.340572602118005" data-palette-color="#ffffff"><path d="M17.05-27.85L11.3-11.6 22.1-11.6 17.05-27.85ZM29.15 0.45L29.15 0.45Q27.65 0.45 26.75-0.3 25.85-1.05 25.15-2.95L25.15-2.95 23.4-8.05 10-8.05 8.1-3.15Q6.75 0.45 4.4 0.45L4.4 0.45Q3.35 0.45 2.5-0.1 1.65-0.65 1.3-1.45L1.3-1.45Q2.5-1.95 3.4-4.2L3.4-4.2 14.7-32.95Q14.1-34.45 13.2-35.15L13.2-35.15Q14.5-36.55 16.2-36.55 17.9-36.55 18.73-35.63 19.55-34.7 20.35-32.5L20.35-32.5 30.15-4.45Q31-2.05 32.5-1.25L32.5-1.25Q31.55 0.45 29.15 0.45ZM38.9-3.75L38.9-3.75 38.9-32.45Q38.9-34.2 37.5-34.8L37.5-34.8Q38.8-36.55 40.8-36.55 42.8-36.55 44.05-35.7 45.3-34.85 46.55-32.9L46.55-32.9 62.7-7.05 62.7-32.45Q62.7-34.2 61.35-34.8L61.35-34.8Q62.55-36.55 64.55-36.55L64.55-36.55Q68-36.55 68-32.4L68-32.4 68-3.7Q68-1.9 69.05-1L69.05-1Q67.95 0.45 65.95 0.45 63.95 0.45 62.42-0.78 60.9-2 59.15-4.75L59.15-4.75 44.15-28.4 44.15-3.7Q44.15-1.85 45.5-1.3L45.5-1.3Q44.2 0.45 42.3 0.45L42.3 0.45Q38.9 0.45 38.9-3.75ZM90.2-27.85L84.45-11.6 95.25-11.6 90.2-27.85ZM102.3 0.45L102.3 0.45Q100.8 0.45 99.9-0.3 99-1.05 98.3-2.95L98.3-2.95 96.55-8.05 83.15-8.05 81.25-3.15Q79.9 0.45 77.55 0.45L77.55 0.45Q76.5 0.45 75.65-0.1 74.8-0.65 74.45-1.45L74.45-1.45Q75.65-1.95 76.55-4.2L76.55-4.2 87.85-32.95Q87.25-34.45 86.35-35.15L86.35-35.15Q87.65-36.55 89.35-36.55 91.05-36.55 91.87-35.63 92.7-34.7 93.5-32.5L93.5-32.5 103.3-4.45Q104.15-2.05 105.65-1.25L105.65-1.25Q104.7 0.45 102.3 0.45ZM135.69-29.55L135.69-29.55Q135.69-28 134.82-27.1 133.94-26.2 132.64-26.2 131.34-26.2 129.94-26.9L129.94-26.9Q130.24-27.8 130.24-28.55L130.24-28.55Q130.24-30.25 128.44-31.68 126.64-33.1 123.42-33.1 120.19-33.1 118.24-31.78 116.29-30.45 116.29-28.4 116.29-26.35 117.82-24.85 119.34-23.35 121.62-22.35 123.89-21.35 126.54-20.08 129.19-18.8 131.47-17.57 133.74-16.35 135.27-14.4 136.79-12.45 136.79-10.1L136.79-10.1Q136.79-5.55 132.82-2.55 128.84 0.45 123.22 0.45 117.59 0.45 113.87-1.93 110.14-4.3 110.14-7.95L110.14-7.95Q110.14-9.7 111.22-10.78 112.29-11.85 113.97-11.85 115.64-11.85 116.79-10.55L116.79-10.55Q115.64-9.55 115.64-7.73 115.64-5.9 117.67-4.55 119.69-3.2 123.19-3.2 126.69-3.2 129.12-4.9 131.54-6.6 131.54-8.88 131.54-11.15 129.42-12.8 127.29-14.45 124.29-15.68 121.29-16.9 118.27-18.3 115.24-19.7 113.12-21.95 110.99-24.2 110.99-27.1L110.99-27.1Q110.99-31.35 114.74-34.02 118.49-36.7 123.72-36.7 128.94-36.7 132.32-34.63 135.69-32.55 135.69-29.55ZM145.49-36.15L145.49-36.15 164.34-36.15Q167.74-36.15 167.74-33.45L167.74-33.45Q167.74-32.25 166.79-31.3L166.79-31.3Q165.29-32.05 162.74-32.05L162.74-32.05 156.69-32.05 156.69-3.7Q156.69-1.9 158.04-1.3L158.04-1.3Q156.84 0.45 154.89 0.45L154.89 0.45Q151.44 0.45 151.44-3.75L151.44-3.75 151.44-32.05 143.84-32.05Q140.49-32.05 140.49-34.75L140.49-34.75Q140.49-35.95 141.39-36.85L141.39-36.85Q142.84-36.15 145.49-36.15ZM185.59-27.85L179.84-11.6 190.64-11.6 185.59-27.85ZM197.69 0.45L197.69 0.45Q196.19 0.45 195.29-0.3 194.39-1.05 193.69-2.95L193.69-2.95 191.94-8.05 178.54-8.05 176.64-3.15Q175.29 0.45 172.94 0.45L172.94 0.45Q171.89 0.45 171.04-0.1 170.19-0.65 169.84-1.45L169.84-1.45Q171.04-1.95 171.94-4.2L171.94-4.2 183.24-32.95Q182.64-34.45 181.74-35.15L181.74-35.15Q183.04-36.55 184.74-36.55 186.44-36.55 187.26-35.63 188.09-34.7 188.89-32.5L188.89-32.5 198.69-4.45Q199.54-2.05 201.04-1.25L201.04-1.25Q200.09 0.45 197.69 0.45ZM231.09-29.55L231.09-29.55Q231.09-28 230.21-27.1 229.34-26.2 228.04-26.2 226.74-26.2 225.34-26.9L225.34-26.9Q225.64-27.8 225.64-28.55L225.64-28.55Q225.64-30.25 223.84-31.68 222.04-33.1 218.81-33.1 215.59-33.1 213.64-31.78 211.69-30.45 211.69-28.4 211.69-26.35 213.21-24.85 214.74-23.35 217.01-22.35 219.29-21.35 221.94-20.08 224.59-18.8 226.86-17.57 229.14-16.35 230.66-14.4 232.19-12.45 232.19-10.1L232.19-10.1Q232.19-5.55 228.21-2.55 224.24 0.45 218.61 0.45 212.99 0.45 209.26-1.93 205.54-4.3 205.54-7.95L205.54-7.95Q205.54-9.7 206.61-10.78 207.69-11.85 209.36-11.85 211.04-11.85 212.19-10.55L212.19-10.55Q211.04-9.55 211.04-7.73 211.04-5.9 213.06-4.55 215.09-3.2 218.59-3.2 222.09-3.2 224.51-4.9 226.94-6.6 226.94-8.88 226.94-11.15 224.81-12.8 222.69-14.45 219.69-15.68 216.69-16.9 213.66-18.3 210.64-19.7 208.51-21.95 206.39-24.2 206.39-27.1L206.39-27.1Q206.39-31.35 210.14-34.02 213.89-36.7 219.11-36.7 224.34-36.7 227.71-34.63 231.09-32.55 231.09-29.55ZM245.28-32.4L245.28-32.4 245.28-3.7Q245.28-1.9 246.63-1.3L246.63-1.3Q245.43 0.45 243.43 0.45L243.43 0.45Q240.03 0.45 240.03-3.75L240.03-3.75 240.03-32.45Q240.03-34.2 238.68-34.8L238.68-34.8Q239.83-36.55 241.83-36.55L241.83-36.55Q245.28-36.55 245.28-32.4ZM267.48-27.85L261.73-11.6 272.53-11.6 267.48-27.85ZM279.58 0.45L279.58 0.45Q278.08 0.45 277.18-0.3 276.28-1.05 275.58-2.95L275.58-2.95 273.83-8.05 260.43-8.05 258.53-3.15Q257.18 0.45 254.83 0.45L254.83 0.45Q253.78 0.45 252.93-0.1 252.08-0.65 251.73-1.45L251.73-1.45Q252.93-1.95 253.83-4.2L253.83-4.2 265.13-32.95Q264.53-34.45 263.63-35.15L263.63-35.15Q264.93-36.55 266.63-36.55 268.33-36.55 269.16-35.63 269.98-34.7 270.78-32.5L270.78-32.5 280.58-4.45Q281.43-2.05 282.93-1.25L282.93-1.25Q281.98 0.45 279.58 0.45ZM311.83-4.25L311.83-4.25 321.38-4.25Q324.43-4.25 326.18-6.3L326.18-6.3Q327.68-5.55 327.68-3.78 327.68-2 326.28-1 324.88 0 321.93 0L321.93 0 311.33 0Q307.13 0 305.15-1.73 303.18-3.45 303.18-7.3L303.18-7.3 303.18-31.8Q303.18-33.6 301.78-34.2L301.78-34.2Q303.18-36.15 305.93-36.15L305.93-36.15 321.98-36.15Q327.68-36.15 327.68-33.1L327.68-33.1Q327.68-31.4 326.18-30.65L326.18-30.65Q324.58-31.85 321.38-31.85L321.38-31.85 308.43-31.85 308.43-21 317.93-21Q321.03-21 322.33-20.45 323.63-19.9 323.63-18.4 323.63-16.9 322.28-16.05L322.28-16.05Q320.73-16.75 317.48-16.75L317.48-16.75 308.43-16.75 308.43-7.7Q308.43-5.85 309.23-5.05 310.03-4.25 311.83-4.25ZM339.02-36.15L339.02-36.15 355.27-36.15Q360.77-36.15 360.77-33.35L360.77-33.35Q360.77-31.65 359.27-30.9L359.27-30.9Q357.67-32.05 354.47-32.05L354.47-32.05 341.52-32.05 341.52-20.75 351.02-20.75Q354.12-20.75 355.42-20.23 356.72-19.7 356.72-18.35 356.72-17 355.37-16.15L355.37-16.15Q353.97-16.8 350.57-16.8L350.57-16.8 341.52-16.8 341.52-3.7Q341.52-1.85 342.87-1.3L342.87-1.3Q341.57 0.45 339.67 0.45L339.67 0.45Q336.27 0.45 336.27-3.75L336.27-3.75 336.27-31.8Q336.27-33.6 334.87-34.2L334.87-34.2Q336.27-36.15 339.02-36.15ZM372.22-32.4L372.22-32.4 372.22-3.7Q372.22-1.9 373.57-1.3L373.57-1.3Q372.37 0.45 370.37 0.45L370.37 0.45Q366.97 0.45 366.97-3.75L366.97-3.75 366.97-32.45Q366.97-34.2 365.62-34.8L365.62-34.8Q366.77-36.55 368.77-36.55L368.77-36.55Q372.22-36.55 372.22-32.4ZM421.72-0.45L421.72-0.45Q420.37 0.4 418.87 0.4 417.37 0.4 416.54-0.5 415.72-1.4 415.52-3.5L415.52-3.5 413.77-30.25 403.17-1.95Q402.62-0.35 400.97-0.35 399.32-0.35 398.77-1.95L398.77-1.95 388.32-30.25 386.57-3.65Q386.42-1.5 385.72-0.53 385.02 0.45 383.42 0.45 381.82 0.45 380.52-0.85L380.52-0.85Q381.52-1.7 381.67-3.9L381.67-3.9 383.77-32.1Q383.77-32.4 383.77-32.65L383.77-32.65Q383.77-34.3 382.97-35.25L382.97-35.25Q385.12-36.55 387.47-36.55 389.82-36.55 391.12-35.25 392.42-33.95 393.32-31.15L393.32-31.15 401.37-9.4 409.67-31.05Q410.67-34.15 412.19-35.35 413.72-36.55 415.82-36.55 417.92-36.55 419.72-35.65L419.72-35.65Q418.92-34.55 418.92-32.9L418.92-32.9Q418.92-32.65 418.92-32.35L418.92-32.35 420.87-4Q420.97-1.4 421.72-0.45ZM437.87-6.95Q440.97-3.15 445.77-3.15 450.57-3.15 453.17-7.45L453.17-7.45Q455.37-11 455.37-16.3L455.37-16.3Q455.37-17.4 455.27-18.6L455.27-18.6Q454.82-25.35 451.72-29.18 448.62-33 443.79-33 438.97-33 436.37-28.7L436.37-28.7Q434.17-25.1 434.17-19.8L434.17-19.8Q434.17-11.5 437.87-6.95L437.87-6.95ZM444.82-36.55Q452.32-36.55 456.47-31.55 460.62-26.55 460.62-18.13 460.62-9.7 456.44-4.63 452.27 0.45 444.79 0.45 437.32 0.45 433.09-4.6 428.87-9.65 428.87-18.05 428.87-26.45 433.09-31.5 437.32-36.55 444.82-36.55ZM491.16-31.15Q491.76-32.85 491.76-34.05 491.76-35.25 491.16-35.95L491.16-35.95Q492.46-36.65 493.91-36.65 495.36-36.65 496.21-35.85 497.06-35.05 497.06-33.75 497.06-32.45 496.51-31.15L496.51-31.15 485.46-3.5Q484.51-1.15 483.69-0.35 482.86 0.45 481.16 0.45 479.46 0.45 478.69-0.35 477.91-1.15 477.06-3.5L477.06-3.5 466.56-31.85Q465.71-34.05 464.46-34.75L464.46-34.75Q466.01-36.55 468.06-36.55L468.06-36.55Q469.41-36.55 470.31-35.68 471.21-34.8 471.96-32.75L471.96-32.75 481.61-5.05 491.16-31.15ZM514.61-27.85L508.86-11.6 519.66-11.6 514.61-27.85ZM526.71 0.45L526.71 0.45Q525.21 0.45 524.31-0.3 523.41-1.05 522.71-2.95L522.71-2.95 520.96-8.05 507.56-8.05 505.66-3.15Q504.31 0.45 501.96 0.45L501.96 0.45Q500.91 0.45 500.06-0.1 499.21-0.65 498.86-1.45L498.86-1.45Q500.06-1.95 500.96-4.2L500.96-4.2 512.26-32.95Q511.66-34.45 510.76-35.15L510.76-35.15Q512.06-36.55 513.76-36.55 515.46-36.55 516.29-35.63 517.11-34.7 517.91-32.5L517.91-32.5 527.71-4.45Q528.56-2.05 530.06-1.25L530.06-1.25Q529.11 0.45 526.71 0.45Z" opacity="1" transform="matrix(1,0,0,1,0,0)" fill="#ffffff" class="undefined-text-0" data-fill-palette-color="quaternary" id="text-0"></path></svg></g></svg></g></svg></g></svg></g><g></g></svg></g><defs></defs></svg><rect width="356.12052" height="61.740052602118" fill="none" stroke="none" visibility="hidden"></rect></g></svg></g></svg>
